icons/person-arrow-left.svg

<svg xmlns="http://www.w3.org/2000/svg" width="24" height="24" viewBox="0 0 24 24">
  <path d="M10,16 C12.9230769,16 15.8461538,16.9493754 15.9941334,19.3106425 L16,19.5 L16,20.5 C16,20.975 16,21.90125 15.142625,21.9926875 L15,22 L3,22 C2.1,22 2.01,21.19 2.001,20.6635 L2,19.5 C2,17.0641026 4.84812623,16.0522682 7.76928134,16.0019808 L8,16 L10,16 Z M9,6 C11.209139,6 13,7.790861 13,10 C13,12.209139 11.209139,14 9,14 C6.790861,14 5,12.209139 5,10 C5,7.790861 6.790861,6 9,6 Z M14.001,6.059 L14.002,6.059 L14,6.018 L14,6 L14.0000451,5.99040127 L14.0001802,5.98082404 L14.0017331,5.94096861 C14.0023256,5.93088722 14.00307,5.92081308 14.003998,5.90996805 L14.003998,5.90996805 L14.0110178,5.85153313 C14.0136281,5.83405099 14.0167022,5.81662474 14.0201652,5.7992059 C14.0246398,5.77725392 14.0298336,5.75556352 14.0358451,5.73400703 C14.0400977,5.71853672 14.0447287,5.70314866 14.0495467,5.68826359 C14.0561225,5.66820232 14.0633157,5.6484208 14.0712255,5.62866398 L14.0712255,5.62866398 L14.0936538,5.57690085 C14.1033766,5.5561086 14.1137939,5.53570605 14.1246712,5.5159379 L14.1246712,5.5159379 L14.1460674,5.47933981 C14.1617187,5.45372505 14.1784901,5.42886931 14.1963346,5.40469339 L14.1963346,5.40469339 L14.22,5.374 L14.216,5.378 L14.2196888,5.37455101 L14.232,5.359 L14.242208,5.34743396 L14.242208,5.34743396 L14.2928932,5.29289322 L17.2928932,2.29289322 L17.3871006,2.20970461 C17.7793918,1.90467972 18.3466228,1.93240926 18.7071068,2.29289322 C19.0976311,2.68341751 19.0976311,3.31658249 18.7071068,3.70710678 L18.7071068,3.70710678 L17.415,5 L21,5 L21.1166211,5.00672773 C21.6139598,5.06449284 22,5.48716416 22,6 C22,6.55228475 21.5522847,7 21,7 L21,7 L17.415,7 L18.7071068,8.29289322 L18.7902954,8.38710056 C19.0953203,8.77939176 19.0675907,9.34662282 18.7071068,9.70710678 C18.3165825,10.0976311 17.6834175,10.0976311 17.2928932,9.70710678 L17.2928932,9.70710678 L14.2928932,6.70710678 L14.2196888,6.62544899 C14.2173721,6.62256244 14.2150711,6.61966276 14.2097046,6.61289944 C14.2051745,6.60707334 14.2007179,6.60120864 14.1963135,6.5951593 C14.1784901,6.57113069 14.1617187,6.54627495 14.1459955,6.52070875 C14.1386069,6.50861311 14.1314988,6.49639444 14.1248758,6.48427695 C14.1137939,6.46429395 14.1033766,6.4438914 14.0936734,6.42322155 L14.0936734,6.42322155 L14.071104,6.37105852 C14.0633157,6.3515792 14.0561225,6.33179768 14.0497381,6.31214252 C14.0447287,6.29685134 14.0400977,6.28146328 14.035721,6.26583961 C14.0298336,6.24443648 14.0246398,6.22274608 14.0202401,6.20072576 C14.0167022,6.18337526 14.0136281,6.16594901 14.0110193,6.14896122 C14.0037612,6.10036209 14,6.05062028 14,6 L14.001,6.059 Z"/>
</svg>

<svg xmlns="http://www.w3.org/2000/svg" viewBox="0 0 24 24">
  <path d="M10 16c2.92 0 5.85.95 6 3.31v1.19c0 .48 0 1.4-.86 1.5H3c-.9 0-.99-.81-1-1.34V19.5c0-2.44 2.85-3.45 5.77-3.5H10zM9 6a4 4 0 1 1 0 8 4 4 0 0 1 0-8zm5 .06V5.9l.01-.06a1.1 1.1 0 0 1 .06-.22l.02-.05.03-.06.03-.04.05-.08.02-.03.01-.01.01-.01.05-.06 3-3 .1-.08a1 1 0 0 1 1.32 1.5L17.4 5h3.71A1 1 0 0 1 21 7h-3.59l1.3 1.3.08.09a1 1 0 0 1-1.5 1.32l-3-3-.07-.08a3 3 0 0 1-.1-.15 1.02 1.02 0 0 1-.03-.06l-.02-.05A.95.95 0 0 1 14 6v.06z"/>
</svg>
